X: 04902
T: Yankee Doodle
N: 2nd tune in "Victory March" medley
B: Henry Ford's "Good Morning"
Z: 2011 John Chambers <jc:trillian.mit.edu>
R: march
M: 2/4
L: 1/8
K: G
V: 1 clef=treble
V: 2 clef=bass middle=d
V: 1
D |\
"G"[GB,][GB,] "D7"[AFC][BFC] | "G"[GB,][BGD] "D7"[AFC][FD] |\
"G"[GB,][GB,] "D7"[AFC][BFC] | "G"[G2D2B,2] "D7"[FCA,]D |\
"G"[GDB,][GDB,] "D"[AFD]"G7"[BGD] |
"C"[cGE]"E7"[B^GE] "Am"[AE]"A7"[=GE] |\
"D7"[FC][DC] [EC][FC] | "G"[G2D2B,2] [GDB,]z |\
"C"[EC2]>F [EC][DB,] | [EC][FD][G2E2] |
"G"[DB,]>[EC] [DB,][CA,] | "G"[B,2G,2] [D2B,2] |\
"C"[EC2]>F [EC][DB,] | [EC][FD] [GE][EC] |\
"G"[DB,][GB,] "D7"[FC][AC] | "G"[G2D2B,2] [GDB,] |]
V: 2
z | Gd Dd | Gd Dd | Gd Dd | Gd Dz | Gg f=f |
ed c^c | df Ad | gd Gz | ce Gg | cg Gg |
Gd Dd | Gd Dd | cg Gg | cg cg | d2 d2 | gd G |]


%%sep 5 1 500

